src/main/resources/icons/AppcodeIcons/icons/CocoaPods.svg

<svg xmlns="http://www.w3.org/2000/svg" width="16" height="16" viewBox="0 0 16 16">
  <g fill="none" fill-rule="evenodd">
    <circle cx="8" cy="8" r="6" fill="#DB5860"/>
    <path fill="#FFF" fill-rule="nonzero" d="M12.0054209 8.0041926L12.0098056 8.00587572 12.0079363 8.0107454 12.0085473 8.01233696 12.0071142 8.01288706 11.1138857 10.3398268 10.1803053 9.98145883 10.9367913 8.0107454 10.179047 6.03675385 11.1126274 5.6783859 12.0054209 8.0041926zM9.83395298 7.01328047L8.7390243 7.01147742C8.39487808 6.4073523 7.74501016 6 7 6 5.8954305 6 5 6.8954305 5 8 5 9.1045695 5.8954305 10 7 10 7.73985414 10 8.3858784 9.59826654 8.73183521 9.0010372L9.82932942 8.99990061C9.41750062 10.1651603 8.30624395 11 7 11 5.34314575 11 4 9.65685425 4 8 4 6.34314575 5.34314575 5 7 5 8.31116439 5 9.42586976 5.84114104 9.83394203 7.01324902z"/>
  </g>
</svg>

<svg xmlns="http://www.w3.org/2000/svg" width="16" height="16" viewBox="0 0 16 16"><rect id="frame" width="16" height="16" fill="none"/><g fill="none" fill-rule="evenodd"><circle cx="8" cy="8" r="6" fill="#DB5860"/><path fill="#FFF" fill-rule="nonzero" d="M12.005 8.004l.005.002-.002.005v.001l-.894 2.328-.934-.359.757-1.97-.758-1.974.934-.359.892 2.326zm-2.171-.99L8.739 7.01a2 2 0 1 0-.007 1.99L9.829 9A3.001 3.001 0 0 1 4 8a3 3 0 0 1 5.834-.987z"/></g></svg>
